packages/icon/src/svg/interactive.icon.svg

<svg role="img" aria-label="interactive icon" xmlns="http://www.w3.org/2000/svg" viewBox="0 0 24 24">
  <path d="M22,10.0540157 L19.9748096,10.0540157 L19.9741439,5.99720106 L3.99720106,5.99720106 L3.99720106,17.9804074 L12.0484178,17.9804074 L12.0484178,20 L3,20 C2.44771525,20 2,19.5522847 2,19 L2,5 C2,4.44771525 2.44771525,4 3,4 L21,4 C21.5522847,4 22,4.44771525 22,5 L22,10.0540157 Z M18.6540574,15.2322728 L21.8527827,18.4309981 C22.0490724,18.6272878 22.0490724,18.9455363 21.8527827,19.141826 L21.1419549,19.8526538 C20.9456652,20.0489435 20.6274167,20.0489435 20.431127,19.8526538 L17.2324017,16.6539285 L16.2954031,18.5279255 C16.1712586,18.7762145 15.8693416,18.8768535 15.6210526,18.752709 C15.5147207,18.699543 15.4306754,18.6104086 15.3838452,18.5011381 L12.0407691,10.7006273 C11.9314189,10.4454768 12.0496134,10.1499905 12.304764,10.0406402 C12.4312002,9.98645326 12.5743199,9.98645326 12.7007562,10.0406402 L20.501267,13.3837163 C20.7564176,13.4930665 20.8746121,13.7885528 20.7652618,14.0437034 C20.7184317,14.1529738 20.6343863,14.2421083 20.5280544,14.2952743 L18.6540574,15.2322728 Z"/>
</svg>

<svg aria-label="interactive icon" viewBox="0 0 24 24"><path d="M22 10.054h-2.025V5.997H3.996V17.98h8.051V20H3a1 1 0 01-1-1V5a1 1 0 011-1h18a1 1 0 011 1v5.054zm-3.346 5.178l3.199 3.199a.503.503 0 010 .71l-.711.712a.503.503 0 01-.71 0l-3.2-3.2-.937 1.875a.503.503 0 01-.911-.027l-3.343-7.8a.503.503 0 01.66-.66l7.8 3.343a.503.503 0 01.027.911l-1.874.937z"/></svg>
